Obsidian/status/16s/mini-calendar.svg

<svg height="16" width="16" xmlns="http://www.w3.org/2000/svg"><path d="m3.0003 1c-2.0003 0-2 2-2 2v12h13.9997v-12c0-2-2-2-2-2zm0 2h9.9997v10h-9.9997zm1 1v2h2v-2zm2.9997 0v2h2v-2zm3 0v2h2v-2zm-5.9997 3v2h2v-2zm2.9997 0v2h2v-2zm3 0v2h2v-2zm-5.9997 3v2h2v-2zm2.9997 0v2h2v-2zm3 0v2h2v-2z" fill="#d3dae3"/></svg>

<svg xmlns="http://www.w3.org/2000/svg" width="16" height="16" version="1.1">
 <defs>
  <style id="current-color-scheme" type="text/css">
   .ColorScheme-Text { color:#d3dae3; } .ColorScheme-Highlight { color:#5294e2; }
  </style>
 </defs>
 <path style="fill:currentColor" class="ColorScheme-Text" d="M 3.0003,1 C 1,1 1.0003,3 1.0003,3 V 15 H 15 V 3 C 15,1 13,1 13,1 Z M 3.0003,3 H 13 V 13 H 3.0003 Z M 4.0003,4 V 6 H 6.0003 V 4 Z M 7,4 V 6 H 9 V 4 Z M 10,4 V 6 H 12 V 4 Z M 4.0003,7 V 9 H 6.0003 V 7 Z M 7,7 V 9 H 9 V 7 Z M 10,7 V 9 H 12 V 7 Z M 4.0003,10 V 12 H 6.0003 V 10 Z M 7,10 V 12 H 9 V 10 Z M 10,10 V 12 H 12 V 10 Z"/>
</svg>
